dist/flags/l/268.svg

<svg width="32" height="24" viewBox="0 0 32 24" fill="none" xmlns="http://www.w3.org/2000/svg">
<mask id="mask0" mask-type="alpha" maskUnits="userSpaceOnUse" x="0" y="0" width="32" height="24">
<rect width="32" height="24" fill="white"/>
</mask>
<g mask="url(#mask0)">
<path fill-rule="evenodd" clip-rule="evenodd" d="M0 0V24H32V0H0Z" fill="#F7FCFF"/>
<mask id="mask1" mask-type="alpha" maskUnits="userSpaceOnUse" x="0" y="0" width="32" height="24">
<path fill-rule="evenodd" clip-rule="evenodd" d="M0 0V24H32V0H0Z" fill="white"/>
</mask>
<g mask="url(#mask1)">
<path fill-rule="evenodd" clip-rule="evenodd" d="M14 0H18V10H32V14H18V24H14V14H0V10H14V0Z" fill="#E31D1C"/>
<path fill-rule="evenodd" clip-rule="evenodd" d="M9.99864 17.222L12.2 17V19C12.2 19 9.99864 18.8622 9.99864 18.902C9.99864 18.9418 10.2 21 10.2 21H8.19995L8.36017 19H6.19995V17L8.36017 17.222L8.19995 15H10.2L9.99864 17.222Z" fill="#E31D1C"/>
<path fill-rule="evenodd" clip-rule="evenodd" d="M9.99864 5.22195L12.2 5V7C12.2 7 9.99864 6.86216 9.99864 6.90196C9.99864 6.94175 10.2 9 10.2 9H8.19995L8.36017 7H6.19995V5L8.36017 5.22195L8.19995 3H10.2L9.99864 5.22195Z" fill="#E31D1C"/>
<path fill-rule="evenodd" clip-rule="evenodd" d="M23.9986 5.22195L26.2 5V7C26.2 7 23.9986 6.86216 23.9986 6.90196C23.9986 6.94175 24.2 9 24.2 9H22.2L22.3602 7H20.2V5L22.3602 5.22195L22.2 3H24.2L23.9986 5.22195Z" fill="#E31D1C"/>
<path fill-rule="evenodd" clip-rule="evenodd" d="M23.9986 17.222L26.2 17V19C26.2 19 23.9986 18.8622 23.9986 18.902C23.9986 18.9418 24.2 21 24.2 21H22.2L22.3602 19H20.2V17L22.3602 17.222L22.2 15H24.2L23.9986 17.222Z" fill="#E31D1C"/>
</g>
</g>
</svg>

<svg width="32" height="24" fill="none" xmlns="http://www.w3.org/2000/svg">
  <mask id="a" maskUnits="userSpaceOnUse" x="0" y="0" width="32" height="24">
    <path fill="#fff" d="M0 0h32v24H0z"/>
  </mask>
  <g mask="url(#a)">
    <path fill-rule="evenodd" clip-rule="evenodd" d="M0 0v24h32V0H0z" fill="#F7FCFF"/>
    <mask id="b" maskUnits="userSpaceOnUse" x="0" y="0" width="32" height="24">
      <path fill-rule="evenodd" clip-rule="evenodd" d="M0 0v24h32V0H0z" fill="#fff"/>
    </mask>
    <g mask="url(#b)" fill-rule="evenodd" clip-rule="evenodd" fill="#E31D1C">
      <path d="M14 0h4v10h14v4H18v10h-4V14H0v-4h14V0z"/>
      <path d="M9.999 17.222L12.2 17v2s-2.201-.138-2.201-.098c0 .04.201 2.098.201 2.098h-2l.16-2H6.2v-2l2.16.222L8.2 15h2l-.201 2.222zm0-12L12.2 5v2s-2.201-.138-2.201-.098c0 .04.201 2.098.201 2.098h-2l.16-2H6.2V5l2.16.222L8.2 3h2l-.201 2.222zm14 0L26.2 5v2s-2.201-.138-2.201-.098c0 .04.201 2.098.201 2.098h-2l.16-2H20.2V5l2.16.222L22.2 3h2l-.201 2.222zm0 12L26.2 17v2s-2.201-.138-2.201-.098c0 .04.201 2.098.201 2.098h-2l.16-2H20.2v-2l2.16.222L22.2 15h2l-.201 2.222z"/>
    </g>
  </g>
</svg>
